X:1
T: Major Alves' Reel
C:
R:Jig
Q:180
K:A
M:6/8
L:1/16
(3efg|a6 g2f2e2|f2e2d2 c2d2e2|a6 e2d2c2|f2d2B2 B2f2g2|a6 g2f2e2|f2e2d2 c2d2e2|f2g2a2 e2f2d2|c2A2A2 A4(3efg|
a6 g2f2e2|f2e2d2 c2d2e2|a6 e2d2c2|f2d2B2 B2f2g2|a6 g2f2e2|f2e2d2 c2d2e2|f2g2a2 e2f2d2|c2A2A2 A4f2|
e2c2A2 e2c2A2|f2g2f2 f2g2a2|e2c2A2 A2c2A2|B2G2E2 E4cd|e2c2A2 e2c2A2|f2g2f2 f2g2a2|e2f2d2 c2d2B2|c2A2A2 A4f2|
e2c2A2 e2c2A2|f2g2f2 f2g2a2|e2c2A2 A2c2A2|B2G2E2 E2G2E2|F2A2F2 G2B2G2|A2c2A2 B2d2B2|c2e2a2 c2d2B2|A2A2A2 A4||
